!! 00000] TT[00
!! NN
!!!OTL: Gu zhi diao
!!!ARE: Asia, Ostasien, China, Shandong
!! Ethnic Group: Han
!! Xiaodiao - Artikel, Essen 1991
!!!SCT: C0000
!!!YEM: Copyright 1995, estate of Helmut Schaffrath.
**kern
*ICvox
*Ivox
*M2/4
*k[b-]
*F:
{8.cc
16dd
8cc
8dd
=1
16gg
16aa
16gg
16aa
8ff
8dd
=2
8cc
8f
16g
16f
16g
16a
=3
2cc}
=4
{8.a
16cc
8a
8cc
=5
8f
16g
16f
8d
8f
=6
16cc
16a
16cc
16dd
8f
16d
16f
=7
2g}
=8
{16a
16cc
16g
16a
8cc
8ff
=9
16dd
16cc
16a
16cc
4g
=10
8f
16g
16f
16d
16c
8d
=11
2c}
=12
{8.cc
16dd
8ff
16dd
16cc
=13
8a
16cc
16a
8.g
16a
=14
8cc
16a
16cc
8g
8d
=15
2f}
==
!!!AGN: Xiaodiao, Wuge
!! Das Lied wird vierphrasig aufgefaát.
!!!ONB: ESAC (Essen Associative Code) Database: CHINAx
!!!AMT: simple duple
!!!AIN: vox
!!!EED: Helmut Schaffrath
!!!EEV: 1.0
*-
